src/svg/09-logo/logo.svg

<svg width="110" height="20" viewBox="0 0 110 20" xmlns="http://www.w3.org/2000/svg">
  <g fill-rule="evenodd" stroke="none">
    <path d="M57.2 6c-2.7 0-4.8 1.3-5.9 3.4-1.1-2-3.2-3.4-5.9-3.4-2.8 0-5 1.4-6 3.6l-1.8 3.9-3.5-8.2-3.6 8.2-3.3-7.1H24l6.6 13.1 3.5-7.9 3.5 7.9 2-4c1.1 2 3.2 3.3 5.8 3.3 2.7 0 4.8-1.3 5.9-3.4 1.1 2 3.2 3.4 5.9 3.4 3.8 0 6.6-2.7 6.6-6.4S61 6 57.2 6zM45.4 16.2c-2.2 0-3.9-1.6-3.9-3.9s1.7-3.9 3.9-3.9 3.9 1.6 3.9 3.9-1.7 3.9-3.9 3.9zm11.8 0c-2.2 0-3.9-1.6-3.9-3.9s1.7-3.9 3.9-3.9 3.9 1.6 3.9 3.9-1.7 3.9-3.9 3.9zM73.4 6.4c-.6-.3-1.4-.4-2.3-.4-1.7 0-2.9.3-3.6 1.3v-1h-2.7v12.1h2.7v-5.5c0-2.7 1.2-4.4 2.9-4.4.3 0 .7 0 1.1.1.5-.9 1.1-1.6 1.9-2.2zM81.8 7.4c-.6-.7-2.1-1.4-3.9-1.4-3.4 0-6.1 2.7-6.1 6.4s2.7 6.4 6.1 6.4c1.7 0 3.3-.7 3.9-1.4v1.1h2.7V6.4h-2.7v1zm-3.6 8.8c-2.3 0-3.7-1.8-3.7-3.9 0-2.1 1.4-3.9 3.7-3.9 2.2 0 3.7 1.7 3.7 3.9s-1.5 3.9-3.7 3.9zM92.5 6c-1.3 0-2.8.4-3.8 1.8V6.3H86v12.1h2.7v-6.7c0-2.1 1.5-3.2 3.2-3.2 1.8 0 2.9 1.1 2.9 3.2v6.7h2.7v-7.6c0-2.9-2.1-4.8-5-4.8zM104.9 12.2l-.2-.2 5.1-5.7h-3.4l-4.1 4.6h-.7V.2l-2.7 2.7v15.6h2.7v-5.1h.7l4.1 5.1h3.4c.1-.1-3.2-4.2-4.9-6.3z"/>
  </g>
  <path d="M7.9 20c6.5 0 11.9-7.8 11.9-7.8S14.4 4.4 7.9 4.4C3.6 4.4 0 8 0 12.2 0 16.4 3.7 20 7.9 20z" fill="#428BCA"/>
  <path d="M6.8 14.8l.7.7.7-.7 4-3.9c.4-.4.4-1 0-1.4-.4-.4-1-.4-1.4 0l-3.3 3.2-1.3-1.3c-.4-.4-1-.4-1.4 0-.4.4-.4 1 0 1.4l2 2z" fill="#FFF"/>
</svg>

<?xml version="1.0" encoding="UTF-8" standalone="no"?>
<svg width="110px" height="20px" viewBox="0 0 110 20" version="1.1" xmlns="http://www.w3.org/2000/svg" xmlns:xlink="http://www.w3.org/1999/xlink">
  <g stroke="none" stroke-width="1" fill="none" fill-rule="evenodd">
    <path d="M57.2,6 C54.5,6 52.4,7.3 51.3,9.4 C50.2,7.4 48.1,6 45.4,6 C42.6,6 40.4,7.4 39.4,9.6 L39.4,9.6 L37.6,13.5 L34.1,5.3 L30.5,13.5 L27.2,6.4 L24,6.4 L30.6,19.5 L34.1,11.6 L37.6,19.5 L39.6,15.5 C40.7,17.5 42.8,18.8 45.4,18.8 C48.1,18.8 50.2,17.5 51.3,15.4 C52.4,17.4 54.5,18.8 57.2,18.8 C61,18.8 63.8,16.1 63.8,12.4 C63.8,8.7 61,6 57.2,6 L57.2,6 Z M45.4,16.2 C43.2,16.2 41.5,14.6 41.5,12.3 C41.5,10 43.2,8.4 45.4,8.4 C47.6,8.4 49.3,10 49.3,12.3 C49.3,14.6 47.6,16.2 45.4,16.2 L45.4,16.2 Z M57.2,16.2 C55,16.2 53.3,14.6 53.3,12.3 C53.3,10 55,8.4 57.2,8.4 C59.4,8.4 61.1,10 61.1,12.3 C61.1,14.6 59.4,16.2 57.2,16.2 L57.2,16.2 Z" fill="#000000"></path>
    <path d="M73.4,6.4 C72.8,6.1 72,6 71.1,6 C69.4,6 68.2,6.3 67.5,7.3 L67.5,6.3 L64.8,6.3 L64.8,18.4 L67.5,18.4 L67.5,12.9 C67.5,10.2 68.7,8.5 70.4,8.5 C70.7,8.5 71.1,8.5 71.5,8.6 C72,7.7 72.6,7 73.4,6.4 L73.4,6.4 Z" fill="#000000"></path>
    <path d="M81.8,7.4 C81.2,6.7 79.7,6 77.9,6 C74.5,6 71.8,8.7 71.8,12.4 C71.8,16.1 74.5,18.8 77.9,18.8 C79.6,18.8 81.2,18.1 81.8,17.4 L81.8,18.5 L84.5,18.5 L84.5,6.4 L81.8,6.4 L81.8,7.4 L81.8,7.4 Z M78.2,16.2 C75.9,16.2 74.5,14.4 74.5,12.3 C74.5,10.2 75.9,8.4 78.2,8.4 C80.4,8.4 81.9,10.1 81.9,12.3 C81.9,14.5 80.4,16.2 78.2,16.2 L78.2,16.2 Z" fill="#000000"></path>
    <path d="M92.5,6 C91.2,6 89.7,6.4 88.7,7.8 L88.7,6.3 L86,6.3 L86,18.4 L88.7,18.4 L88.7,11.7 C88.7,9.6 90.2,8.5 91.9,8.5 C93.7,8.5 94.8,9.6 94.8,11.7 L94.8,18.4 L97.5,18.4 L97.5,10.8 C97.5,7.9 95.4,6 92.5,6 L92.5,6 Z" fill="#000000"></path>
    <path d="M104.9,12.2 C104.8,12.1 104.7,12 104.7,12 L109.8,6.3 L106.4,6.3 L102.3,10.9 L101.6,10.9 L101.6,0.2 L98.9,2.9 L98.9,18.5 L101.6,18.5 L101.6,13.4 L102.3,13.4 L106.4,18.5 L109.8,18.5 C109.9,18.4 106.6,14.3 104.9,12.2 L104.9,12.2 Z" fill="#000000"></path>
    <path d="M7.9,20 C14.4,20 19.8,12.2 19.8,12.2 C19.8,12.2 14.4,4.4 7.9,4.4 C3.6,4.4 0,8 0,12.2 C0,16.4 3.7,20 7.9,20 L7.9,20 L7.9,20 Z" fill="#428BCA"></path>
    <path d="M6.8,14.8 L7.5,15.5 L8.2,14.8 L12.2,10.9 C12.6,10.5 12.6,9.9 12.2,9.5 C11.8,9.1 11.2,9.1 10.8,9.5 L7.5,12.7 L6.2,11.4 C5.8,11 5.2,11 4.8,11.4 C4.4,11.8 4.4,12.4 4.8,12.8 L6.8,14.8 L6.8,14.8 Z" fill="#FFFFFF"></path>
  </g>
</svg>
